src/cmd/sc_torus.svg

<svg height="16" width="16" xmlns="http://www.w3.org/2000/svg" xmlns:xlink="http://www.w3.org/1999/xlink"><radialGradient id="a" cx="11" cy="1041.3622" gradientTransform="matrix(-.75000017 .00000806 -.00000807 -.7500096 16.258408 789.03149)" gradientUnits="userSpaceOnUse" r="8" spreadMethod="pad"><stop offset="0" stop-color="#b3b3b3" stop-opacity="0"/><stop offset=".79500759" stop-color="#232629"/><stop offset="1" stop-color="#232629" stop-opacity="0"/></radialGradient><radialGradient id="b" cx="15" cy="1037.3622" gradientTransform="matrix(-.64403341 -.43996187 .31038243 -.36802288 -297.3185 1426.1034)" gradientUnits="userSpaceOnUse" r="8"><stop offset="0" stop-color="#b3b3b3"/><stop offset="1" stop-color="#232629"/></radialGradient><radialGradient id="c" cx="15" cy="1037.3622" gradientTransform="matrix(.64403341 .43996187 -.31038243 .36802288 319.3185 656.55865)" gradientUnits="userSpaceOnUse" r="8"><stop offset="0" stop-color="#b3b3b3"/><stop offset="1" stop-color="#232629" stop-opacity=".072727"/></radialGradient><g transform="matrix(.75000002 0 0 .83333404 -.25 -859.77657)"><path d="m11 1034.131a7.9999998 7.1999939 0 0 0 -8.0000001 7.2 7.9999998 7.1999939 0 0 0 8.0000001 7.2 7.9999998 7.1999939 0 0 0 7.999999-7.2 7.9999998 7.1999939 0 0 0 -7.999999-7.2zm0 3.6a3.9999999 3.599997 0 0 1 4 3.6 3.9999999 3.599997 0 0 1 -4 3.6 3.9999999 3.599997 0 0 1 -4.0000002-3.6 3.9999999 3.599997 0 0 1 4.0000002-3.6z" fill="#232629" fill-opacity=".835294"/><path d="m11 1034.131a7.9999998 7.1999939 0 0 0 -8 7.2 7.9999998 7.1999939 0 0 0 8 7.2 7.9999998 7.1999939 0 0 0 7.999999-7.2 7.9999998 7.1999939 0 0 0 -7.999999-7.2zm0 3.6a3.9999999 3.599997 0 0 1 4 3.6 3.9999999 3.599997 0 0 1 -4 3.6 3.9999999 3.599997 0 0 1 -4-3.6 3.9999999 3.599997 0 0 1 4-3.6z" fill="url(#b)"/><path d="m11 1048.531a7.9999998 7.1999939 0 0 0 7.999999-7.2 7.9999998 7.1999939 0 0 0 -7.999999-7.2 7.9999998 7.1999939 0 0 0 -8 7.2 7.9999998 7.1999939 0 0 0 8 7.2zm0-3.6a3.9999999 3.599997 0 0 1 -4-3.6 3.9999999 3.599997 0 0 1 4-3.6 3.9999999 3.599997 0 0 1 4 3.6 3.9999999 3.599997 0 0 1 -4 3.6z" fill="url(#c)"/><path d="m5.845703 1035.8344a7.9999998 7.1999939 0 0 0 -2.845703 5.4966 7.9999998 7.1999939 0 0 0 8 7.2 7.9999998 7.1999939 0 0 0 6.158202-2.6068 7.9999998 7.1999939 0 0 1 -5.158202 1.7068 7.9999998 7.1999939 0 0 1 -8-7.2 7.9999998 7.1999939 0 0 1 1.845703-4.5966z" fill="#232629" fill-opacity=".470588"/><path d="m16 1040.881a4.4999999 4.0499966 0 0 0 -4.5-4.05 4.4999999 4.0499966 0 0 0 -4.5 4.05 4.4999999 4.0499966 0 0 0 .0098.2567 3.9999999 3.599997 0 0 1 3.990234-3.4067 3.9999999 3.599997 0 0 1 4 3.6 3.9999999 3.599997 0 0 1 -3.707031 3.5895 4.4999999 4.0499966 0 0 0 .207031.011 4.4999999 4.0499966 0 0 0 4.5-4.05z" fill="#232629" fill-opacity=".470588"/><path d="m8 2a6 6 0 0 0 -6 6 6 6 0 0 0 6 6 6 6 0 0 0 6-6 6 6 0 0 0 -6-6zm0 3a3 3 0 0 1 3 3 3 3 0 0 1 -3 3 3 3 0 0 1 -3-3 3 3 0 0 1 3-3z" fill="url(#a)" opacity=".719" transform="matrix(1.3333333 0 0 1.199999 .333333 1031.731)"/></g></svg>

<?xml version="1.0" encoding="UTF-8" standalone="no"?>
<svg
   xmlns:dc="http://purl.org/dc/elements/1.1/"
   xmlns:cc="http://creativecommons.org/ns#"
   xmlns:rdf="http://www.w3.org/1999/02/22-rdf-syntax-ns#"
   xmlns:svg="http://www.w3.org/2000/svg"
   xmlns="http://www.w3.org/2000/svg"
   xmlns:xlink="http://www.w3.org/1999/xlink"
   xmlns:sodipodi="http://sodipodi.sourceforge.net/DTD/sodipodi-0.dtd"
   xmlns:inkscape="http://www.inkscape.org/namespaces/inkscape"
   height="16"
   width="16"
   version="1.1"
   id="svg33"
   sodipodi:docname="sc_torus.svg"
   inkscape:export-filename="/home/jupiter007/Libreoffice yaru theme fullcolor/build/cmd/sc_torus.png"
   inkscape:export-xdpi="96"
   inkscape:export-ydpi="96"
   inkscape:version="0.92.5 (2060ec1f9f, 2020-04-08)">
  <metadata
     id="metadata39">
    <rdf:RDF>
      <cc:Work
         rdf:about="">
        <dc:format>image/svg+xml</dc:format>
        <dc:type
           rdf:resource="http://purl.org/dc/dcmitype/StillImage" />
      </cc:Work>
    </rdf:RDF>
  </metadata>
  <defs
     id="defs37">
    <linearGradient
       inkscape:collect="always"
       id="linearGradient858">
      <stop
         style="stop-color:#232629;stop-opacity:1;"
         offset="0"
         id="stop854" />
      <stop
         id="stop864"
         offset="0.33333334"
         style="stop-color:#ffffff;stop-opacity:1" />
      <stop
         style="stop-color:#d4d4d4;stop-opacity:1"
         offset="0.76002234"
         id="stop866" />
      <stop
         style="stop-color:#ffffff;stop-opacity:1"
         offset="1"
         id="stop856" />
    </linearGradient>
    <radialGradient
       inkscape:collect="always"
       xlink:href="#linearGradient858"
       id="radialGradient860"
       cx="8"
       cy="7.9999991"
       fx="8"
       fy="7.9999991"
       r="6"
       gradientTransform="translate(0,-6.5999963e-6)"
       gradientUnits="userSpaceOnUse" />
  </defs>
  <sodipodi:namedview
     pagecolor="#ffffff"
     bordercolor="#666666"
     borderopacity="1"
     objecttolerance="10"
     gridtolerance="10"
     guidetolerance="10"
     inkscape:pageopacity="0"
     inkscape:pageshadow="2"
     inkscape:window-width="1920"
     inkscape:window-height="1011"
     id="namedview35"
     showgrid="true"
     inkscape:zoom="41.7193"
     inkscape:cx="5.7815504"
     inkscape:cy="10.917814"
     inkscape:window-x="0"
     inkscape:window-y="32"
     inkscape:window-maximized="1"
     inkscape:current-layer="svg33">
    <inkscape:grid
       type="xygrid"
       id="grid862" />
  </sodipodi:namedview>
  <radialGradient
     id="a"
     cx="11"
     cy="1041.3622"
     gradientTransform="matrix(-0.75000017,8.06e-6,-8.07e-6,-0.7500096,16.258408,789.03148)"
     gradientUnits="userSpaceOnUse"
     r="8"
     spreadMethod="pad">
    <stop
       offset="0"
       stop-color="#b3b3b3"
       stop-opacity="0"
       id="stop2" />
    <stop
       offset=".79500759"
       stop-color="#232629"
       id="stop4" />
    <stop
       offset="1"
       stop-color="#232629"
       stop-opacity="0"
       id="stop6" />
  </radialGradient>
  <radialGradient
     id="b"
     cx="15"
     cy="1037.3622"
     gradientTransform="matrix(-0.48302507,-0.3666352,0.23278683,-0.30668599,-223.23888,328.64394)"
     gradientUnits="userSpaceOnUse"
     r="8">
    <stop
       offset="0"
       stop-color="#b3b3b3"
       id="stop9" />
    <stop
       offset="1"
       stop-color="#232629"
       id="stop11" />
  </radialGradient>
  <radialGradient
     id="c"
     cx="15"
     cy="1037.3622"
     gradientTransform="matrix(0.48302507,0.3666352,-0.23278683,0.30668599,239.23888,-312.6439)"
     gradientUnits="userSpaceOnUse"
     r="8">
    <stop
       offset="0"
       stop-color="#b3b3b3"
       id="stop14" />
    <stop
       offset="1"
       stop-color="#232629"
       stop-opacity=".072727"
       id="stop16" />
  </radialGradient>
  <path
     d="M 8.0000002,1.9999941 A 6,6 0 0 0 2,7.9999992 6,6 0 0 0 8.0000002,14.000004 6,6 0 0 0 14,7.9999992 6,6 0 0 0 8.0000002,1.9999941 Z m 0,3.0000026 A 3,3 0 0 1 11,7.9999992 3,3 0 0 1 8.0000002,11.000002 3,3 0 0 1 5,7.9999992 3,3 0 0 1 8.0000002,4.9999967 Z"
     id="path852"
     inkscape:connector-curvature="0"
     style="fill:#000000;fill-opacity:0.835294;stroke-width:2;stroke:#000000;opacity:0.6;stroke-miterlimit:4;stroke-dasharray:none;stroke-linejoin:round" />
  <path
     style="fill:url(#radialGradient860);fill-opacity:1;stroke-width:0.79056978"
     inkscape:connector-curvature="0"
     id="path19"
     d="M 8.0000002,1.9999941 A 6,6 0 0 0 2,7.9999992 6,6 0 0 0 8.0000002,14.000004 6,6 0 0 0 14,7.9999992 6,6 0 0 0 8.0000002,1.9999941 Z m 0,3.0000026 A 3,3 0 0 1 11,7.9999992 3,3 0 0 1 8.0000002,11.000002 3,3 0 0 1 5,7.9999992 3,3 0 0 1 8.0000002,4.9999967 Z" />
</svg>
